X:1
T: The Groves Hornpipe
C:
R:Reel
Q: 232
K:G
M:4/4
L:1/8
D|G2 GF GA Bc|dB GB AG FD|=F2 FE FG AB|cd fe dc BA|
G2 GF GA Bc|dB GB AG FD|df eg fd cA|AG GF G3A|
B2 BA Bc de|fd cB AF ((3FEF)|CF ((3FEF) AF ((3FDF)|AB cA BG ((3GFG)|
B2 BA Bc de|fd cA dB cA|df eg fd cA|AG GF G3c|
d2 g2 g2 fg|ab ag f2 af|d^c de fd fg|ab ag f2 fe|
d2 g2 g2 fg|ab ag f2 fe|d^c de fd =cA|AG GF G3D|
Gd ((3Bcd) Gd ((3Bcd)|=Fc ((3ABc) F2 A^F|Gd ((3Bcd) G2 Bc|d^c de fd cA|
Gd ((3Bcd) Gd ((3Bcd)|=Fc ((3ABc) F2 Bc|d^c de fd =cA|AG GF G3d|
gd ((3Bcd) gd ((3Bcd)|fc ((3ABc) fc ((3ABc)|gd ((3Bcd) gd ((3Bcd)|AG ((3ABc) AG ((3ABc)|
de dB cd cA|((3Bcd) BG Ac Bc|df eg fd cA|AG GF G3||
